X:6167
T:Songs for Sarajevo
O:england
R:Mazurka
M:3/4
C:C.A. Goss
A:Lancaster
K:FMix
V:1
AB||\
c2 B2 A2| dc B2 AB|\
c2 B2 A2| GA B2 AB|
c2 B2 A2| \
M:3/2
gfed cded c2e2 |1 \
M:3/4
A4 :|2 A4 c2 |]\
"Coda"A4 c2| "Fine"[A6f6]|]
fc Af cA| eB Ge BG| \
dB Fd BF| AB cd ed| f2 c2 e2|
fc Af cA| eB Ge BG |1 \
M:5/4
dB Fd BF [A2d2] [B2e2] :|2\
M:4/4
dB Fd "D.C. al Fine"BF AB |]
V:2 clef=bass
z2 |\
f2 [c'4f'4] | g2 [d'4g'4] |\
f2 [c'4f'4] | e2 [b4e'4] |\
f2 [c'4f'4] |\
M:3/2
f4 [c'8f'8] |1 \
M:3/4
f2 [c'2f'2] :|2 \
f2 c'2 f'2 ||\
f2c'2f'2 | z6 |]\
[c'6f'6] | [b6f'6] |\
[g6d'6] | [f6(c'6] | \
[c'6)f6] | [c'6f'6] |\
[b6f'6] |1 \
M:5/4
[g6d'6] a2 b2 :|2\
M:4/4
[g6d'6] z2 |]
W:Copyright (C) Catherine Goss 12.3.94


